X: 50
T: No_44_Dragging-Feet_Dance_(b).krn
N: Derived from No_44_Dragging-Feet_Dance_(b).krn
%%abc-version 2.0
%%abcx-abcm2ps-target-version 5.9.1 (29 Sep 2008)
%%abc-creator hum2abc beta
%%abcx-conversion-date 2019/03/15 08:36:49
%%humdrum-veritas 2589640020
%%humdrum-veritas-data 3763047658
%%linebreak <none>
%%barnumbers 0
L: 1/8
M: 2/4
%%staves {1 2}
V: 1 clef=bass
V: 2 clef=bass
K: Db
[V:1] [K:clef=bass][M:2/4]D/D3/ [I:setbarnb 1]| 
[V:2] [K:clef=bass][M:2/4]G,,2 | 
[V:1] F2EF/E/ ||  
[V:2] G,,2G,,2 ||  
[V:1] [M:3/4]D2A,3/A,/ A,3/D/ ||  
[V:2] [M:3/4]G,,2G,,2G,,2 ||  
[V:1] [M:2/4]D2A,A, ||  
[V:2] [M:2/4]z4 ||  
[V:1] [M:3/4]A,6 ||  
[V:2] [M:3/4]z6 ||  
[V:1] [M:2/4]A,2G,3/A,/ ||  
[V:2] [M:2/4]z4 ||  
[V:1] [M:3/4]A,4G,2 ||  
[V:2] [M:3/4]z6 ||  
[V:1] [M:2/4]A,A, A,3/A,/ ||  
[V:2] [M:2/4]z4 ||  
[V:1] [M:3/4]A,7/A,/ A,3/D/ | 
[V:2] [M:3/4]z6 | 
[V:1] D2A,/A,3/ A,G, ||  
[V:2] z6 ||  
[V:1] [M:2/4]A,4- | 
[V:2] [M:2/4]z4 | 
[V:1] [M:1/4]A,2 :|]  
[V:2] [M:1/4]z2 :|]  



